packages/kaspersky-hexa-ui-icons/src/iconsSVGs/32/StatusShareSold.svg

<svg width="32" height="32" viewBox="0 0 32 32" fill="none" xmlns="http://www.w3.org/2000/svg">
<path fill-rule="evenodd" clip-rule="evenodd" d="M18.4056 1.37466C16.9151 0.522908 15.0852 0.522899 13.5947 1.37464L4.44288 6.60423C2.93227 7.46744 2 9.0739 2 10.8138V21.1864C2 22.9263 2.93227 24.5327 4.44289 25.3959L13.5947 30.6255C15.0852 31.4773 16.9151 31.4773 18.4056 30.6255L27.5572 25.396C29.0678 24.5327 30 22.9263 30 21.1864V10.8137C30 9.07389 29.0678 7.46744 27.5572 6.60422L18.4056 1.37466ZM21.7504 10C21.7504 11.3807 20.6311 12.5 19.2504 12.5C18.7135 12.5 18.2161 12.3308 17.8088 12.0427L12.6907 15.4548C12.7298 15.6303 12.7504 15.8127 12.7504 16C12.7504 16.1873 12.7298 16.3697 12.6907 16.5452L17.8088 19.9573C18.2161 19.6692 18.7135 19.5 19.2504 19.5C20.6311 19.5 21.7504 20.6193 21.7504 22C21.7504 23.3807 20.6311 24.5 19.2504 24.5C17.8697 24.5 16.7504 23.3807 16.7504 22C16.7504 21.8127 16.771 21.6303 16.81 21.4548L11.692 18.0427C11.2846 18.3308 10.7872 18.5 10.2504 18.5C8.86965 18.5 7.75037 17.3807 7.75037 16C7.75037 14.6193 8.86965 13.5 10.2504 13.5C10.7872 13.5 11.2846 13.6692 11.692 13.9573L16.81 10.5452C16.771 10.3697 16.7504 10.1873 16.7504 10C16.7504 8.61929 17.8697 7.5 19.2504 7.5C20.6311 7.5 21.7504 8.61929 21.7504 10Z" fill="black"/>
</svg>

<svg xmlns="http://www.w3.org/2000/svg" width="32" height="32" fill="none" viewBox="0 0 32 32"><path fill="#000" fill-rule="evenodd" d="M18.4056 1.3747a4.848 4.848 0 0 0-4.8109 0L4.4429 6.6041A4.848 4.848 0 0 0 2 10.8138v10.3726a4.848 4.848 0 0 0 2.4429 4.2095l9.1518 5.2296a4.848 4.848 0 0 0 4.8109 0l9.1516-5.2295A4.849 4.849 0 0 0 30 21.1864V10.8137a4.848 4.848 0 0 0-2.4428-4.2095zM21.7504 10c0 1.3807-1.1193 2.5-2.5 2.5a2.49 2.49 0 0 1-1.4416-.4573l-5.1181 3.4121c.0391.1755.0597.3579.0597.5452s-.0206.3697-.0597.5452l5.1181 3.4121a2.49 2.49 0 0 1 1.4416-.4573c1.3807 0 2.5 1.1193 2.5 2.5s-1.1193 2.5-2.5 2.5-2.5-1.1193-2.5-2.5c0-.1873.0206-.3697.0596-.5452l-5.118-3.4121a2.49 2.49 0 0 1-1.4416.4573c-1.3808 0-2.5-1.1193-2.5-2.5s1.1193-2.5 2.5-2.5c.5368 0 1.0342.1692 1.4416.4573l5.118-3.4121A2.5 2.5 0 0 1 16.7504 10c0-1.3807 1.1193-2.5 2.5-2.5s2.5 1.1193 2.5 2.5"/></svg>
